X:1
T:Title
%%score { 1 | 2 }
L:1/8
M:3/4
K:Bb
V:1 treble nm="Grand Piano"
V:2 bass 
V:1
 z2 z2[Q:1/4=100] [DF]2 | [DB]4 [FA][EG] | [EG]2 [DF]2 [DF]2 | [EG]2 [DF]2 [B,D]2 | [DF]4 [DF]2 | %5
 [EG]4 [FA][GB] | [FB]2 [DF]2 [DB]2 | [FB]3 [EA] [DB]2 |[M:2/4] c4 |[M:1/4] F2 | %10
[M:3/4] [Fd]4 [Ec][DB] | [Ec]2 [GB]2 [EG]2 | [=Ec]3 [GB] [EG]2 | F4 F2 | G4 [EA][DB] | %15
 [Ec]2 [B,EG]2 [EGc]2 | [DFB]3 [DFB] [CEA]2 |[M:2/4] [DB]4 |[M:1/4] [DF]2 |[M:3/4] [DF]4 [DF][DF] | %20
 [EG]2 [DF]2 [DF]2 | [FB]4 [EA][DB] | d2 c2 c2 | [Fd]4 [Fc][FB] | [EG]2 [GB]2 G2 | F2 B2 A2 | %26
[M:2/4] [DB]4 |] %27
V:2
 z2 z2 [B,,B,]2 | [B,,F,]4 [B,,F,][B,,B,] | [B,,B,]2 [B,,B,]2 [B,,B,]2 | %3
 [B,,B,]2 [B,,B,]2 [B,,F,]2 | [B,,B,]4 [B,,B,]2 | [E,B,]4 [E,C][E,B,] | [D,B,]2 [B,,B,]2 [B,,F,]2 | %7
 [D,B,]3 [C,F,] [B,,B,]2 |[M:2/4] [F,A,F]4 |[M:1/4] [F,A,]2 |[M:3/4] [B,,B,]4 [B,,B,][B,,B,] | %11
 [E,G,]2 [E,B,]2 [E,B,]2 | [C,C]3 [C,C] [C,B,]2 | [F,A,]4 [D,B,]2 | [E,B,E]4 [C,F,][B,,F,] | %15
 [E,G,]2 E,2 C,2 | F,3 F, F,2 |[M:2/4] [B,,B,]4 |[M:1/4] [B,,B,]2 | %19
[M:3/4] [B,,B,]4 [B,,B,][B,,B,] | [B,,B,]2 [B,,B,]2 [B,,B,]2 | [D,B,]4 [C,F,][B,,B,] | %22
 [F,B,F]2 [F,A,F]2 [F,A,F]2 | [B,,B,]4 [C,A,][D,B,] | [E,B,]2 [E,B,]2 [E,B,E]2 | %25
 [F,B,D]2 [F,DF]2 [F,CE]2 |[M:2/4] [B,,B,]4 |] %27

